Newaita-dark/actions/16/format-precision-less.svg

<svg height="16" viewBox="0 0 16 16" width="16" xmlns="http://www.w3.org/2000/svg"><g fill="#e0e0e0"><path d="m6.285156 1.449219c-1.375 0-2.480468 1.105469-2.480468 2.480469v2.3125c0 1.375 1.105468 2.484374 2.480468 2.484374s2.480469-1.109374 2.480469-2.484374v-2.3125c0-1.375-1.105469-2.480469-2.480469-2.480469zm0 1.320312c.640625 0 1.15625.519531 1.15625 1.160157v2.3125c0 .644531-.515625 1.160156-1.15625 1.160156s-1.160156-.515625-1.160156-1.160156v-2.3125c0-.640626.519531-1.160157 1.160156-1.160157zm0 0"/><path d="m12.074219 1.449219c-1.375 0-2.480469 1.105469-2.480469 2.480469v2.3125c0 1.375 1.105469 2.484374 2.480469 2.484374 1.371093 0 2.480469-1.109374 2.480469-2.484374v-2.3125c0-1.375-1.109376-2.480469-2.480469-2.480469zm0 1.320312c.640625 0 1.15625.519531 1.15625 1.160157v2.3125c0 .644531-.515625 1.160156-1.15625 1.160156-.644531 0-1.160157-.515625-1.160157-1.160156v-2.3125c0-.640626.515626-1.160157 1.160157-1.160157zm0 0" fill-opacity=".392157"/><path d="m1.652344 7.402344h.664062c.179688 0 .328125.148437.328125.332031v.660156c0 .183594-.148437.332031-.328125.332031h-.664062c-.179688 0-.328125-.148437-.328125-.332031v-.660156c0-.183594.148437-.332031.328125-.332031zm0 0"/></g><path d="m14.457031 14.113281-.46875.46875c-.128906.128907-.339843.128907-.46875 0l-3.273437-3.277343c-.128906-.128907-.128906-.335938 0-.464844l.46875-.46875c.128906-.128906.335937-.128906.464844 0l3.277343 3.273437c.128907.128907.128907.339844 0 .46875zm0 0" fill="#f44336"/><path d="m10.714844 14.582031-.46875-.46875c-.128906-.128906-.128906-.339843 0-.46875l3.273437-3.273437c.128907-.128906.339844-.128906.46875 0l.46875.46875c.128907.128906.128907.335937 0 .464844l-3.277343 3.277343c-.128907.128907-.335938.128907-.464844 0zm0 0" fill="#f44336"/></svg>

<?xml version="1.0" encoding="UTF-8"?>
<svg xmlns="http://www.w3.org/2000/svg" xmlns:xlink="http://www.w3.org/1999/xlink" width="16px" height="16px" viewBox="0 0 16 16" version="1.1">
<g id="surface1">
<path style=" stroke:none;fill-rule:nonzero;fill:rgb(87.843138%,87.843138%,87.843138%);fill-opacity:1;" d="M 6.285156 1.449219 C 4.910156 1.449219 3.804688 2.554688 3.804688 3.929688 L 3.804688 6.242188 C 3.804688 7.617188 4.910156 8.726562 6.285156 8.726562 C 7.660156 8.726562 8.765625 7.617188 8.765625 6.242188 L 8.765625 3.929688 C 8.765625 2.554688 7.660156 1.449219 6.285156 1.449219 Z M 6.285156 2.769531 C 6.925781 2.769531 7.441406 3.289062 7.441406 3.929688 L 7.441406 6.242188 C 7.441406 6.886719 6.925781 7.402344 6.285156 7.402344 C 5.644531 7.402344 5.125 6.886719 5.125 6.242188 L 5.125 3.929688 C 5.125 3.289062 5.644531 2.769531 6.285156 2.769531 Z M 6.285156 2.769531 "/>
<path style=" stroke:none;fill-rule:nonzero;fill:rgb(87.843138%,87.843138%,87.843138%);fill-opacity:0.392157;" d="M 12.074219 1.449219 C 10.699219 1.449219 9.59375 2.554688 9.59375 3.929688 L 9.59375 6.242188 C 9.59375 7.617188 10.699219 8.726562 12.074219 8.726562 C 13.445312 8.726562 14.554688 7.617188 14.554688 6.242188 L 14.554688 3.929688 C 14.554688 2.554688 13.445312 1.449219 12.074219 1.449219 Z M 12.074219 2.769531 C 12.714844 2.769531 13.230469 3.289062 13.230469 3.929688 L 13.230469 6.242188 C 13.230469 6.886719 12.714844 7.402344 12.074219 7.402344 C 11.429688 7.402344 10.914062 6.886719 10.914062 6.242188 L 10.914062 3.929688 C 10.914062 3.289062 11.429688 2.769531 12.074219 2.769531 Z M 12.074219 2.769531 "/>
<path style=" stroke:none;fill-rule:nonzero;fill:rgb(87.843138%,87.843138%,87.843138%);fill-opacity:1;" d="M 1.652344 7.402344 L 2.316406 7.402344 C 2.496094 7.402344 2.644531 7.550781 2.644531 7.734375 L 2.644531 8.394531 C 2.644531 8.578125 2.496094 8.726562 2.316406 8.726562 L 1.652344 8.726562 C 1.472656 8.726562 1.324219 8.578125 1.324219 8.394531 L 1.324219 7.734375 C 1.324219 7.550781 1.472656 7.402344 1.652344 7.402344 Z M 1.652344 7.402344 "/>
<path style=" stroke:none;fill-rule:nonzero;fill:rgb(95.686275%,26.274511%,21.176471%);fill-opacity:1;" d="M 14.457031 14.113281 L 13.988281 14.582031 C 13.859375 14.710938 13.648438 14.710938 13.519531 14.582031 L 10.246094 11.304688 C 10.117188 11.175781 10.117188 10.96875 10.246094 10.839844 L 10.714844 10.371094 C 10.84375 10.242188 11.050781 10.242188 11.179688 10.371094 L 14.457031 13.644531 C 14.585938 13.773438 14.585938 13.984375 14.457031 14.113281 Z M 14.457031 14.113281 "/>
<path style=" stroke:none;fill-rule:nonzero;fill:rgb(95.686275%,26.274511%,21.176471%);fill-opacity:1;" d="M 10.714844 14.582031 L 10.246094 14.113281 C 10.117188 13.984375 10.117188 13.773438 10.246094 13.644531 L 13.519531 10.371094 C 13.648438 10.242188 13.859375 10.242188 13.988281 10.371094 L 14.457031 10.839844 C 14.585938 10.96875 14.585938 11.175781 14.457031 11.304688 L 11.179688 14.582031 C 11.050781 14.710938 10.84375 14.710938 10.714844 14.582031 Z M 10.714844 14.582031 "/>
</g>
</svg>
